images/VK.svg

<svg width="44" height="26" viewBox="0 0 44 26" fill="none" xmlns="http://www.w3.org/2000/svg">
<g id="Layer_11">
<path id="Vector" d="M1.45645 0C2.96474 0 5.26308 0 6.5559 0C7.2023 0 7.70507 0.43094 7.92054 1.00553C8.56695 2.87293 10.0034 6.96685 11.6553 9.76796C13.8819 13.4309 15.3183 14.7956 16.252 14.6519C17.1857 14.4365 16.8984 11.9945 16.8984 10.0552C16.8984 8.11602 17.1139 4.81216 16.1802 3.30387L14.7437 1.221C14.3846 0.718233 14.7437 0.0718235 15.3183 0.0718235H23.5062C24.2962 0.0718235 24.9426 0.718232 24.9426 1.50829V11.9227C24.9426 11.9227 25.3018 13.7901 27.3128 11.8508C29.3239 9.9116 31.4786 6.32044 33.2741 2.65746L33.9924 0.933702C34.2078 0.430939 34.7106 0.0718235 35.2852 0.0718235H40.6001C41.6056 0.0718235 42.3239 1.07735 41.9647 2.01105L41.3902 3.51934C41.3902 3.51934 39.4509 7.39779 37.4399 10.1271C35.4288 12.9282 34.9979 13.5746 35.2852 14.2928C35.5725 15.0111 40.7437 19.8232 42.0366 22.1215C42.3957 22.768 42.683 23.3425 42.9703 23.8453C43.473 24.779 42.7548 26 41.6774 26H35.6443C35.1415 26 34.6388 25.7127 34.4233 25.2818L33.8487 24.3481C33.8487 24.3481 30.1857 20.0387 27.9592 18.674C25.6609 17.3812 25.7327 19.2486 25.7327 19.2486V23.0552C25.7327 24.6354 24.4399 25.9282 22.8598 25.9282H21.4233C21.4233 25.9282 13.5227 25.9282 7.2023 16.5193C2.2465 9.19337 0.594569 4.45304 0.0199833 1.72376C-0.123663 0.861878 0.522746 0 1.45645 0Z" fill="white"/>
</g>
</svg>

<svg xmlns="http://www.w3.org/2000/svg" width="44" height="26" fill="none">
  <path fill="#fff" d="M1.456 0h5.1c.646 0 1.15.43 1.365 1.006.646 1.867 2.082 5.96 3.734 8.762 2.227 3.663 3.663 5.028 4.597 4.884.934-.215.646-2.657.646-4.597 0-1.939.216-5.243-.718-6.751L14.744 1.22a.718.718 0 0 1 .574-1.15h8.188c.79 0 1.437.647 1.437 1.437v10.415s.359 1.867 2.37-.072c2.01-1.94 4.166-5.53 5.961-9.194l.718-1.723a1.419 1.419 0 0 1 1.293-.862H40.6c1.006 0 1.724 1.005 1.365 1.939l-.575 1.508s-1.94 3.879-3.95 6.608c-2.011 2.801-2.442 3.448-2.155 4.166.288.718 5.459 5.53 6.752 7.829.359.646.646 1.22.933 1.723.503.934-.215 2.155-1.293 2.155h-6.033c-.502 0-1.005-.287-1.22-.718l-.575-.934s-3.663-4.31-5.89-5.674c-2.298-1.293-2.226.575-2.226.575v3.806a2.881 2.881 0 0 1-2.873 2.873h-1.437s-7.9 0-14.22-9.409C2.245 9.193.594 4.453.02 1.724-.124.862.523 0 1.456 0Z"/>
</svg>
